!!!COM: Josephine Lang
!!!CNT: Deutsch
!!!TXO: Deutsch
!!!OTL: "Auf dem See in tausend Sterne"
!!!LYR: Reinhold
!!!OPS: Op. 14
!!!ONM: No. 6
!!!ENC: Alyona Dzerbina, edited by LVH
!!!YOR: Josephine Lang: Selected Songs
!!!YOR: Da Capo Press, 1982
!!!ODT: 1841/
!!NB: Vocal melody only encoded.
**kern	**text
*staff1	*staff1
*clefG2	*
*k[f#c#g#d#a#e#]	*
*M2/4	*
*MM[Allegretto]	*
2r	.
=2	=2
2r	.
=3	=3
2r	.
=4	=4
2r	.
=5	=5
{4.a#	{Auf
8g#	dem
=6	=6
4f#	See
4cc#	in
=7	=7
4.a#	tau-
8g#	-send
=8	=8
4f#	Ster-
4c#}	-ne}
=9	=9
{4.a#	{hat
8cc#	die
=10	=10
(4ff#	Son-
8cc#)	|
8b	-ne
=11	=11
(8a#	sich-
16b	|
16a#	|
8g#)	|
8f#	zer-
=12	=12
4dd#	-split-
4a#}	-tert,}
=13	=13
{4.f#	{dass
8e#	er
=14	=14
4d#	bli-
4a#	-tzend
=15	=15
4.dd#	nah
8a#	und
=16	=16
4cc#	fer-
4b}	-ne}
=17	=17
{4.b	{wie
8a#	ein
=18	=18
4g#	Meer
4b	von
=19	=19
4.dd#	Feu-
8gg#	-er
=20	=20
4ff#	zit-
4ee#}	-tert.}
=21	=21
2r	.
=22	=22
2r	.
=23	=23
2r	.
=24	=24
2r	.
=25	=25
{4cc#	{So
8r	.
8cc#	in
=26	=26
4cc#	mei-
4ff#	-nes
=27	=27
4.cc#	Le-
8g#	-bens
=28	=28
4b	Wel-
4a#}	-len}
=29	=29
{4.cc#	{sank-
8cc#	-dein
=30	=30
(8cc#	lie-
8aa#	|
8ff#)	|
8a#	-bes
=31	=31
4.cc#	Bild
8g#	her-
=32	=32
4b	-nie-
4a#}	-der}
=33	=33
{4a#	{und
8r	.
8a#	aus
=34	=34
4.a#	tau-
8a#	-send
=35	=35
(4a#	Won-
8.dd#)	|
16dd#	-ne
=36	=36
8dd#	-quel
8b	|
4b}	-len}
=37	=37
{4.b	{sprin-
8dd#	-gen
=38	=38
4.gg#	im-
8ff#	-mer
=39	=39
4.ee#	neu-
8dd#	-e
=40	=40
4dd#	Lie-
4cc#}	-der.}
=41	=41
{4.cc#	{Willst
8a#	du
=42	=42
4.f#	in
8d#	dies
=43	=43
4.c#	Meer
8f#	von
=44	=44
4a#	Schim-
4cc#}	-mer,}
=45	=45
{(4ff#	{hol-
8cc#)	|
8b	-de
=46	=46
4.a#	Schif-
8a#	-fe-
=47	=47
(8a#	-rin,
16b	|
16a#	|
8g#)	|
8f#	dich
=48	=48
4dd#	wa-
8a#}	-gen?}
8r	.
=49	=49
2r	.
=50	=50
4r	.
{8.b	{Komm,
16g#	o
=51	=51
[2dd#	komm!
=52	=52
2dd#]}	|}
=53	=53
2r	.
=54	=54
4r	.
{4b-	{o
=55	=55
[2b-	komm!
=56	=56
2b-]}	|}
=57	=57
2r	.
=58	=58
4r	.
{8.b	{Komm,
16g#	o
=59	=59
[2dd#	komm,
=60	=60
2dd#]}	|}
=61	=61
2r	.
=62	=62
8r	.
{8dd#	{und
8.dd#	lass
16b	es
=63	=63
[2ff#	im-
=64	=64
(4ff#]	|
8f#)	|
8a#	-mer
=65	=65
[2cc#	glu2h'nd
=66	=66
4cc#]	|
4ff#	um
=67	=67
[2cc#	dich
=68	=68
4cc#]	|
4a#	zu-
=69	=69
[2cc#	-sam-
=70	=70
4cc#]	|
4ff#	-men
=71	=71
[2cc#	schla-
=72	=72
4cc#]	|
4a#}	-gen;}
=73	=73
{(4g#	{komm!
4b#)	|
=74	=74
(4dd#	o
4ff#)	|
=75	=75
[2ff#	komm,
=76	=76
(4ff#]	|
8a#)}	|}
16r	.
{16a#	{und
=77	=77
(4g#	lass
4b#)	|
=78	=78
(4dd#	es
4ff#)	|
=79	=79
[2ff#	im-
=80	=80
4ff#]	|
4a#	-mer
=81	=81
4g#	glu2h'nd
4b#	um
=82	=82
4.dd#	dich
8ff#	zu-
=83	=83
[2ff#	-sam-
=84	=84
4ff#]	|
4a#	-men
=85	=85
[2cc#	schla-
=86	=86
2cc#]	|
=87	=87
[2f#	-gen!
=88	=88
4f#]}	|}
4r	.
=89	=89
{[2g#	{Komm!
=90	=90
(4g#]	|
8a#)	|
8b	o
=91	=91
(2a#	komm!
=92	=92
4cc#)}	|}
4r	.
=93	=93
{(4b	{komm!
4cc#	|
=94	=94
4dd#	|
4ee#	|
=95	=95
[2ff#)	|
=96	=96
2ff#_	|
=97	=97
2ff#_	|
=98	=98
4ff#]}	|}
4r	.
=99	=99
2r	.
=100	=100
2r	.
=101	=101
2r	.
==	==
*-	*-
